resources/haticons/SVG/add_circle_outline.svg

<!-- Generated by IcoMoon.io -->
<svg version="1.1" xmlns="http://www.w3.org/2000/svg" width="24" height="24" viewBox="0 0 24 24">
<title>add_circle_outline</title>
<path d="M12 20.016q3.281 0 5.648-2.367t2.367-5.648-2.367-5.648-5.648-2.367-5.648 2.367-2.367 5.648 2.367 5.648 5.648 2.367zM12 2.016q4.125 0 7.055 2.93t2.93 7.055-2.93 7.055-7.055 2.93-7.055-2.93-2.93-7.055 2.93-7.055 7.055-2.93zM12.984 6.984v4.031h4.031v1.969h-4.031v4.031h-1.969v-4.031h-4.031v-1.969h4.031v-4.031h1.969z"></path>
</svg>

<svg xmlns="http://www.w3.org/2000/svg" width="24" height="24"><path d="M12 20.016q3.281 0 5.648-2.367t2.367-5.648-2.367-5.648T12 3.986 6.352 6.353t-2.367 5.648 2.367 5.648T12 20.016zm0-18q4.125 0 7.055 2.93t2.93 7.055-2.93 7.055T12 21.986t-7.055-2.93-2.93-7.055 2.93-7.055T12 2.016zm.984 4.968v4.031h4.031v1.969h-4.031v4.031h-1.969v-4.031H6.984v-1.969h4.031V6.984h1.969z"/></svg>
